X:1
T:Lord Lovat's Strathspey
M:C
L:1/8
Q:80
C:
S:Strathspey
K:HP
|: {g}A3/2{d}A/2{e}A3/2{d}c/2{gBd}B3/2A/2{g}B/2c3/2 | \
{g}A3/2{d}A/2{e}A3/2{d}c/2{g}e3/2f/2{gef}e3/2c/2 | \
{g}A3/2{d}A/2{e}A3/2{d}c/2{gBd}B3/2A/2{g}B/2c3/2 |
{g}e/2f3/2{gef}e3/2c/2{g}B3/2{d}c/2{gfg}f2:| [ | \
{g}((3efg){ag}((3a3/2e/2agf){gef}e3/2c/2 | \
{g}e3/2f/2{ag}a3/2e/2{g}f/2a3/2{fg}f2 |
{g}((3efg){ag}((3a3/2e/2agf){gef}e3/2c/2 | \
{Gdc}d3/2f/2{gef}e3/2c/2{g}B3/2{d}c/2{gfg}f2{g}((3efg){ag}((3a3/2e/2agf)
{gef}e3/2c/2 | \
{g}e3/2f/2{ag}a3/2e/2{g}f/2a3/2{fg}f2 |
{g}((3efg){ag}a3/2e/2{gfg}f3/2d/2{gef}e3/2c/2 | \
{g}d/2f3/2{g}c/2e3/2{g}B3/2{d}c/2{ag}a2|]
